; HEADER_BLOCK_START
; generated by OrcaSlicer 2.3.1 on 2025-11-11 at 10:50:12
; total layer number: 240
; filament_density: 1.24
; filament_diameter: 1.75
; max_z_height: 48.00
; HEADER_BLOCK_END

; THUMBNAIL_BLOCK_START

;
; THUMBNAIL_BLOCK_END

; THUMBNAIL_BLOCK_START

;
; THUMBNAIL_BLOCK_END

; external perimeters extrusion width = 0.40mm
; perimeters extrusion width = 0.45mm
; infill extrusion width = 0.45mm
; solid infill extrusion width = 0.40mm
; top infill extrusion width = 0.40mm
; first layer extrusion width = 0.50mm

; EXECUTABLE_BLOCK_START
M73 P0 R104
M201 X500 Y500 Z500 E5000
M203 X500 Y500 Z10 E60
M204 P500 R1000 T500 ; sets acceleration (P, T) and retract acceleration (R), mm/sec^2
M205 X8.00 Y8.00 Z0.40 E5.00 ; sets the jerk limits, mm/sec
;TYPE:Custom
G90 ; use absolute coordinates
M83 ; extruder relative mode
M140 S60 ; set final bed temp
M104 S150 ; set temporary nozzle temp to prevent oozing during homing
G4 S10 ; allow partial nozzle warmup
G28 ; home all axis
G1 Z50 F240
G1 X2 Y10 F3000
M104 S220 ; set final nozzle temp
M190 S60 ; wait for bed temp to stabilize
M109 S220 ; wait for nozzle temp to stabilize
G1 Z0.28 F240
G92 E0
G1 Y140 E10 F1500 ; prime the nozzle
M73 P0 R103
G1 X2.3 F5000
G92 E0
G1 Y10 E10 F1200 ; prime the nozzle
G92 E0
G90
G21
M83 ; use relative distances for extrusion
; filament start gcode
M106 S0
;LAYER_CHANGE
;Z:0.2
;HEIGHT:0.2
;BEFORE_LAYER_CHANGE
;0.2
G92 E0

G1 E-5 F3600
;_SET_FAN_SPEED_CHANGING_LAYER
M204 P500
M204 T500
G1 Z.6 F9000
G1 X94.59 Y108.539
G1 Z.6
G1 Z.2
G1 E5 F2400
;TYPE:Skirt
;WIDTH:0.5
G1 F3000
G1 X117.802 Y107.174 E.86605
G1 X119.788 Y107.319 E.07416
G1 X121.999 Y107.761 E.084
G1 X124.147 Y108.494 E.08453
G1 X126.208 Y109.523 E.0858
G1 X128.093 Y110.803 E.08486
G1 X129.77 Y112.302 E.08379
G1 X131.234 Y114.005 E.08365
G1 X132.459 Y115.891 E.08376
G1 X132.788 Y116.866 E.03831
G1 X132.835 Y117.784 E.03424
G1 X132.631 Y118.712 E.03538
G1 X132.056 Y119.797 E.04575
G1 X130.891 Y121.436 E.07489
G1 X129.723 Y122.746 E.06536
G1 X128.352 Y123.991 E.06901
G1 X126.727 Y125.161 E.07457
G1 X124.755 Y126.239 E.0837
G1 X123.718 Y126.679 E.04196
G1 X122.273 Y127.164 E.05676
G1 X119.873 Y127.67 E.09135
G1 X117.262 Y127.825 E.09743
G1 X92.936 Y126.357 E.9077
G1 X92.12 Y126.183 E.03106
G1 X91.254 Y125.781 E.03557
G1 X90.522 Y125.191 E.03503
G1 X90.008 Y124.531 E.03115
G1 X89.587 Y123.605 E.03787
G1 X89.405 Y122.556 E.03968
G1 X89.412 Y112.329 E.3809
G1 X89.587 Y111.395 E.03541
G1 X90.003 Y110.475 E.03758
G1 X90.594 Y109.737 E.03523
G1 X91.25 Y109.222 E.03105
G1 X92.225 Y108.785 E.03981
G1 X93.142 Y108.624 E.03466
G1 X94.55 Y108.542 E.05256
; printing object 3DBenchy.stl id:0 copy 0
G1 E-3.8 F3600
;WIPE_START
G1 F3000
G1 X95.549 Y108.483 E-1.2
;WIPE_END
G1 Z.6 F9000
G1 X114.002 Y119.702 Z.6
G1 Z.2
G1 E5 F2400
;TYPE:Brim
G1 F900
G1 X114.085 Y119.612 E.00455
G1 X114.194 Y119.563 E.00444
G1 X114.308 Y119.557 E.00425
G1 X114.416 Y119.589 E.00419
G1 X114.51 Y119.669 E.00461
G1 X114.566 Y119.775 E.0045
G1 X114.579 Y119.904 E.00482
G1 X114.532 Y120.029 E.00497
G1 X114.45 Y120.117 E.00446
G1 X114.34 Y120.168 E.00454
G1 X114.22 Y120.171 E.00448
G1 X114.122 Y120.137 E.00386
G1 X114.017 Y120.043 E.00524
G1 X113.962 Y119.912 E.00528
G1 X113.962 Y119.812 E.00376
G1 X113.989 Y119.739 E.00286
G1 E-3.5 F3600
;WIPE_START
G1 F900
G1 X114.085 Y119.612 E-.23978
G1 X114.194 Y119.563 E-.17868
G1 X114.308 Y119.557 E-.17128
G1 X114.416 Y119.589 E-.16872
G1 X114.51 Y119.669 E-.18548
G1 X114.566 Y119.775 E-.18107
G1 X114.579 Y119.904 E-.19425
G1 X114.537 Y120.017 E-.18074
;WIPE_END
G1 Z.6 F9000
G1 X109.755 Y119.693 Z.6
G1 Z.2
G1 E5 F2400
G1 F900
G1 X109.3 Y119.709 E.01695
G1 X109.314 Y119.224 E.01809
G1 X109.321 Y119.252 E.00109
G1 X109.371 Y119.371 E.00483
G1 X109.476 Y119.52 E.00676
G1 X109.646 Y119.65 E.00797
G1 X109.718 Y119.678 E.00287
G1 E-3.5 F3600
;WIPE_START
G1 F900
G1 X109.3 Y119.709 E-.62832
G1 X109.314 Y119.224 E-.72851
G1 X109.321 Y119.252 E-.04395
G1 X109.347 Y119.313 E-.09922
;WIPE_END
G1 Z.6 F9000
G1 X109.32 Y115.655 Z.6
G1 Z.2
G1 E5 F2400
G1 F900
G1 X109.297 Y115.221 E.01617
G1 X109.62 Y115.233 E.01203
G1 X109.849 Y115.234 E.00856
G1 X109.661 Y115.277 E.00719
G1 X109.455 Y115.409 E.00911
G1 X109.384 Y115.5 E.0043
G1 X109.335 Y115.618 E.00476
G1 E-3.5 F3600
;WIPE_START
G1 F900
G1 X109.297 Y115.221 E-.59768
G1 X109.62 Y115.233 E-.48437
G1 X109.849 Y115.234 E-.34479
G1 X109.802 Y115.245 E-.07315
;WIPE_END
G1 Z.6 F9000
G1 X122.114 Y123.625 Z.6
G1 Z.2
G1 E5 F2400
;TYPE:Inner wall
;WIDTH:0.499999
G1 F900
G1 X122.323 Y123.433 E.01055
G1 X122.643 Y122.998 E.02014
G1 X122.903 Y122.5 E.02092
G1 X123.622 Y120.651 E.07387
G1 X123.668 Y120.778 E.00505
G1 X123.929 Y121.212 E.01884
G1 X124.24 Y121.507 E.01597
G1 X124.611 Y121.682 E.01529
G1 X125.131 Y121.787 E.01973
G1 X125.648 Y121.765 E.01929
G1 X125.213 Y122.072 E.01982
G1 X124.544 Y122.495 E.02949
G1 X124.025 Y122.788 E.0222
G1 X123.388 Y123.107 E.02653
G1 X122.898 Y123.32 E.0199
G1 X122.151 Y123.61 E.02986
G1 E-3.5 F3600
;WIPE_START
G1 F900
G1 X122.323 Y123.433 E-.36941
G1 X122.643 Y122.998 E-.81128
G1 X122.741 Y122.809 E-.31931
;WIPE_END
G1 Z.6 F9000
G1 X128.255 Y120.559 Z.6
G1 Z.2
G1 E5 F2400
;TYPE:Outer wall
;WIDTH:0.652846
G1 F900
G1 X128.026 Y120.789 E.01615
G1 E-3.70028 F3600
;WIPE_START
G1 F900
G1 X128.255 Y120.559 E-1.29972
;WIPE_END
G1 Z.6 F9000
G1 X128.192 Y118.563 Z.6
G1 Z.2
G1 E5 F2400
;TYPE:Inner wall
;WIDTH:0.51452
G1 F900
G1 X128.628 Y117.937 E.02932
;WIDTH:0.518538
G1 X128.953 Y117.383 E.02489
G1 X129.101 Y116.948 E.01781
G1 X129.415 Y117.504 E.02475
G1 X129.364 Y117.622 E.00496
G1 X128.953 Y118.293 E.03051
;WIDTH:0.51452
G1 X128.599 Y118.798 E.02372
G1 X128.436 Y118.67 E.00797
G1 X128.229 Y118.579 E.00869
G1 E-3.5 F3600
;WIPE_START
G1 F900
G1 X128.628 Y117.937 E-1.13434
G1 X128.751 Y117.727 E-.36566
;WIPE_END
G1 Z.6 F9000
G1 X122.072 Y115.536 Z.6
G1 Z.2
G1 E5 F2400
;WIDTH:0.499999
G1 F900
G1 X121.728 Y115.186 E.0183
G1 X121.457 Y115.006 E.01211
G1 X120.901 Y114.823 E.02179
G1 X120.581 Y114.808 E.01196
G1 X120.034 Y114.892 E.0206
G1 X119.643 Y115.105 E.01658
G1 X119.24 Y114.885 E.01713
G1 X119.023 Y114.829 E.00834
G1 X118.516 Y114.809 E.01888
G1 X118.023 Y114.975 E.0194
G1 X117.681 Y115.205 E.01534
G1 X117.562 Y115.105 E.00579
G1 X117.235 Y114.915 E.01408
G1 X116.728 Y114.798 E.01937
G1 X116.473 Y114.806 E.00951
G1 X116.086 Y114.894 E.01478
G1 X115.661 Y115.1 E.0176
G1 X115.272 Y115.482 E.02031
G1 X115.099 Y115.8 E.01349
;WIDTH:0.539912
G1 X115.051 Y115.945 E.00618
;WIDTH:0.579825
G1 X115.004 Y116.09 E.00668
;WIDTH:0.619738
G1 X114.956 Y116.235 E.00718
;WIDTH:0.65965
G1 X114.908 Y116.381 E.00767
;WIDTH:0.660831
G1 X114.972 Y116.888 E.02575
;WIDTH:0.690003
G1 X115.057 Y117.142 E.01413
;WIDTH:0.719174
G1 X115.142 Y117.396 E.01476
G1 X115.413 Y117.893 E.03116
G1 X115.31 Y117.829 E.00665
G1 X114.914 Y117.669 E.02357
G1 X114.401 Y117.588 E.0286
G1 X114.384 Y117.284 E.01675
;WIDTH:0.690003
G1 X114.367 Y116.981 E.01603
;WIDTH:0.660831
G1 X114.296 Y116.446 E.0272
;WIDTH:0.65965
G1 X114.234 Y116.283 E.00872
;WIDTH:0.619738
G1 X114.173 Y116.121 E.00816
;WIDTH:0.579825
G1 X114.111 Y115.959 E.00759
;WIDTH:0.539912
G1 X114.05 Y115.797 E.00703
;WIDTH:0.499999
G1 X113.816 Y115.207 E.02363
G1 X113.479 Y114.669 E.02364
G1 X113.075 Y114.227 E.02231
G1 X112.548 Y113.842 E.02431
G1 X111.989 Y113.594 E.02277
G1 X111.405 Y113.451 E.02239
G1 X110.85 Y113.385 E.02083
G1 X109.261 Y113.349 E.0592
G1 X108.705 Y113.407 E.02081
G1 X108.203 Y113.6 E.02004
G1 X107.811 Y113.919 E.01884
G1 X107.631 Y114.164 E.0113
G1 X107.26 Y113.795 E.01949
G1 X106.947 Y113.583 E.01407
G1 X106.236 Y113.3 E.0285
G1 X105.487 Y113.19 E.0282
G1 X104.969 Y113.198 E.01929
G1 X104.425 Y113.273 E.02045
G1 X104.136 Y113.353 E.01114
G1 X103.598 Y113.58 E.02176
G1 X103.313 Y113.759 E.01255
G1 X103.168 Y113.635 E.00709
G1 X102.862 Y113.487 E.01268
G1 X102.276 Y113.359 E.02234
G1 X99.008 Y113.37 E.12175
G1 X98.344 Y113.335 E.02476
G1 X98.018 Y113.365 E.01218
G1 X97.439 Y113.615 E.02347
G1 X97.159 Y113.861 E.0139
G1 X96.964 Y113.704 E.00931
G1 X96.648 Y113.525 E.01352
G1 X96.079 Y113.312 E.02263
G1 X95.761 Y113.243 E.01211
G1 X94.812 Y113.201 E.03538
G1 X93.965 Y113.353 E.03206
G1 X93.438 Y113.562 E.02112
G1 X92.816 Y113.965 E.0276
G1 X92.816 Y113.14 E.03074
G1 X92.844 Y112.536 E.02251
G1 X92.948 Y112.233 E.01195
G1 X93.093 Y112.125 E.00673
G1 X93.406 Y112.029 E.0122
G1 X116.714 Y110.613 E.86973
G1 X117.779 Y110.589 E.03968
G1 X118.554 Y110.623 E.0289
G1 X119.311 Y110.7 E.02832
G1 X120.069 Y110.82 E.02861
G1 X121.092 Y111.053 E.03905
G1 X121.768 Y111.253 E.02627
G1 X122.876 Y111.665 E.04404
G1 X123.939 Y112.176 E.04393
G1 X124.493 Y112.477 E.02346
G1 X125.313 Y113.005 E.03634
G1 X126 Y113.502 E.03156
G1 X126.731 Y114.117 E.03558
G1 X127.43 Y114.799 E.03641
G1 X125.252 Y114.807 E.08112
G1 X124.661 Y114.907 E.02235
G1 X124.259 Y115.1 E.0166
G1 X123.993 Y114.953 E.01131
G1 X123.61 Y114.816 E.01518
G1 X123.234 Y114.809 E.01401
G1 X122.808 Y114.918 E.01638
G1 X122.376 Y115.206 E.01933
G1 X122.099 Y115.507 E.01523
G1 E-3.5 F3600
;WIPE_START
G1 F900
G1 X121.728 Y115.186 E-.73629
G1 X121.457 Y115.006 E-.48758
G1 X121.282 Y114.948 E-.27614
;WIPE_END
G1 Z.6 F9000
G1 X127.404 Y118.87 Z.6
G1 Z.2
G1 E5 F2400
G1 F900
G1 X128.003 Y118.029 E.03846
G1 X128.351 Y117.493 E.0238
G1 X128.63 Y116.932 E.02332
G1 X128.684 Y116.534 E.01498
G1 X128.613 Y116.084 E.01697
;WIDTH:0.49702
G1 X128.487 Y115.88 E.00887
;WIDTH:0.455795
G1 X128.361 Y115.675 E.00807
;WIDTH:0.453593
G1 X128.186 Y115.521 E.00782
;WIDTH:0.492616
G1 X128.01 Y115.367 E.00857
;WIDTH:0.499999
G1 X127.53 Y115.256 E.01836
G1 X125.526 Y115.253 E.07462
G1 X124.919 Y115.315 E.02276
G1 X124.572 Y115.448 E.01382
G1 X124.258 Y115.718 E.01543
G1 X124.156 Y115.595 E.00597
G1 X123.712 Y115.322 E.01941
G1 X123.383 Y115.258 E.01249
G1 X123.004 Y115.33 E.01437
G1 X122.559 Y115.649 E.02039
G1 X122.236 Y116.149 E.02218
G1 X122.035 Y116.676 E.02101
G1 X121.917 Y116.265 E.01594
G1 X121.702 Y115.803 E.01898
G1 X121.325 Y115.454 E.01916
G1 X120.816 Y115.272 E.02012
G1 X120.254 Y115.304 E.02098
G1 X119.905 Y115.48 E.01456
G1 X119.651 Y115.774 E.01445
G1 X119.468 Y115.551 E.01073
G1 X119.081 Y115.314 E.0169
G1 X118.837 Y115.269 E.00926
G1 X118.476 Y115.283 E.01344
G1 X118.063 Y115.476 E.017
G1 X117.678 Y115.859 E.02023
G1 X117.504 Y115.652 E.01006
G1 X117.133 Y115.368 E.01742
G1 X116.713 Y115.255 E.0162
G1 X116.369 Y115.281 E.01285
G1 X115.969 Y115.445 E.01608
G1 X115.634 Y115.762 E.01719
G1 X115.483 Y116.085 E.0133
G1 X115.445 Y116.351 E.01001
G1 X115.506 Y116.789 E.01645
G1 X115.706 Y117.261 E.01911
G1 X116.285 Y118.266 E.0432
G1 X116.069 Y118.577 E.01413
G1 X115.788 Y119.07 E.02112
G1 X115.73 Y118.955 E.00479
G1 X115.433 Y118.588 E.01759
G1 X115.012 Y118.311 E.01877
G1 X114.756 Y118.216 E.01015
G1 X114.175 Y118.139 E.02185
G1 X113.785 Y118.22 E.01484
G1 X113.834 Y117.602 E.0231
G1 X113.822 Y116.883 E.02677
G1 X113.73 Y116.302 E.02191
G1 X113.618 Y115.946 E.0139
G1 X113.422 Y115.438 E.02028
G1 X113.132 Y114.966 E.02062
G1 X112.789 Y114.584 E.01911
G1 X112.347 Y114.252 E.02059
G1 X111.874 Y114.036 E.0194
G1 X111.346 Y113.904 E.02027
G1 X110.839 Y113.842 E.019
G1 X109.25 Y113.806 E.0592
G1 X108.811 Y113.852 E.01645
G1 X108.353 Y114.042 E.01848
G1 X108.051 Y114.338 E.01576
G1 X107.904 Y114.71 E.01487
G1 X107.9 Y114.85 E.00521
;WIDTH:0.471103
G1 X107.895 Y114.989 E.00488
;WIDTH:0.442206
G1 X107.929 Y115.28 E.00954
;WIDTH:0.414036
G1 X107.963 Y115.572 E.00886
;WIDTH:0.40683
G1 X107.951 Y116.363 E.02347
;WIDTH:0.441678
G1 X107.934 Y116.562 E.00648
;WIDTH:0.476526
G1 X107.916 Y116.76 E.00704
;WIDTH:0.511373
G1 X107.898 Y116.959 E.00761
G1 X107.911 Y118.488 E.05837
G1 X107.726 Y117.647 E.03286
G1 X107.519 Y117.181 E.01946
G1 X107.389 Y116.986 E.00894
G1 X107.482 Y116.796 E.00808
;WIDTH:0.499314
G1 X107.524 Y116.585 E.00799
;WIDTH:0.463817
G1 X107.567 Y116.374 E.00737
;WIDTH:0.42832
G1 X107.609 Y116.164 E.00675
;WIDTH:0.392822
G1 X107.62 Y115.433 E.02084
;WIDTH:0.426917
G1 X107.588 Y115.184 E.00786
;WIDTH:0.474224
G1 X107.555 Y114.935 E.00883
;WIDTH:0.499999
G1 X107.367 Y114.558 E.01568
G1 X107.082 Y114.255 E.01549
G1 X106.756 Y113.998 E.01546
G1 X106.161 Y113.751 E.02399
G1 X105.59 Y113.657 E.02157
G1 X105.031 Y113.651 E.02081
G1 X104.314 Y113.774 E.02709
G1 X103.697 Y114.041 E.02506
G1 X103.271 Y114.412 E.02105
G1 X103.023 Y114.109 E.01459
G1 X102.776 Y113.941 E.01111
G1 X102.278 Y113.816 E.01914
G1 X98.996 Y113.827 E.12222
G1 X98.32 Y113.792 E.02524
G1 X97.995 Y113.854 E.01233
G1 X97.596 Y114.061 E.01671
G1 X97.378 Y114.316 E.01249
G1 X97.26 Y114.564 E.01023
G1 X96.917 Y114.253 E.01721
G1 X96.488 Y113.953 E.01951
G1 X95.728 Y113.699 E.02984
G1 X94.877 Y113.653 E.03177
G1 X94.29 Y113.737 E.02207
G1 X93.974 Y113.841 E.01239
G1 X93.461 Y114.066 E.02087
G1 X93.002 Y114.394 E.021
G1 X92.586 Y114.834 E.02255
G1 X92.359 Y115.204 E.01619
G1 X92.359 Y112.744 E.09161
G1 X92.426 Y112.304 E.01659
G1 X92.522 Y112.057 E.00989
G1 X92.777 Y111.766 E.01439
G1 X92.987 Y111.671 E.00858
G1 X93.356 Y111.574 E.01423
G1 X116.695 Y110.156 E.87088
G1 X117.784 Y110.132 E.04057
G1 X118.587 Y110.167 E.02995
G1 X119.37 Y110.246 E.02929
G1 X120.156 Y110.371 E.02966
G1 X121.208 Y110.61 E.04016
G1 X121.898 Y110.815 E.02682
G1 X123.065 Y111.249 E.04639
G1 X124.156 Y111.774 E.04506
G1 X124.735 Y112.089 E.02455
G1 X125.58 Y112.634 E.03748
G1 X126.293 Y113.152 E.03282
G1 X127.047 Y113.787 E.03672
G1 X127.835 Y114.564 E.04121
G1 X128.265 Y115.027 E.02352
;WIDTH:0.492616
G1 X128.458 Y115.234 E.01038
;WIDTH:0.453593
G1 X128.65 Y115.442 E.00948
;WIDTH:0.455795
G1 X128.8 Y115.667 E.00909
;WIDTH:0.49702
G1 X128.949 Y115.893 E.01
;WIDTH:0.499999
G1 X129.537 Y116.767 E.03926
G1 X129.843 Y117.293 E.02266
G1 X129.874 Y117.607 E.01175
G1 X129.767 Y117.857 E.01014
G1 X129.411 Y118.437 E.02534
G1 X129.116 Y118.88 E.01982
G1 X128.616 Y119.541 E.03086
G1 X128.536 Y119.381 E.00666
G1 X128.208 Y119.074 E.01675
G1 X127.89 Y118.945 E.01277
G1 X127.443 Y118.876 E.01682
G1 E-3.5 F3600
;WIPE_START
G1 F900
G1 X127.994 Y118.041 E-1.5
;WIPE_END
G1 Z.6 F9000
G1 X94.958 Y116.578 Z.6
G1 Z.2
G1 E5 F2400
G1 F900
G1 X95.707 Y116.951 E.03117
;WIDTH:0.543575
G1 X95.829 Y117 E.00537
;WIDTH:0.587151
G1 X95.951 Y117.049 E.00583
;WIDTH:0.630727
G1 X96.073 Y117.098 E.0063
;WIDTH:0.674302
G1 X96.195 Y117.147 E.00677
G1 X96.455 Y117.167 E.01338
;WIDTH:0.668136
G1 X96.523 Y117.137 E.00379
;WIDTH:0.627884
G1 X96.591 Y117.107 E.00355
;WIDTH:0.587632
G1 X96.659 Y117.078 E.0033
;WIDTH:0.54738
G1 X96.727 Y117.048 E.00306
;WIDTH:0.507128
G1 X97.195 Y116.86 E.01905
;WIDTH:0.499999
G1 X97.561 Y116.559 E.01764
G1 X98.125 Y116.711 E.02176
G1 X98.597 Y116.707 E.0176
G1 X98.607 Y118.351 E.06123
;WIDTH:0.530824
G1 X98.595 Y118.813 E.01837
;WIDTH:0.561649
G1 X98.557 Y119.873 E.04486
;WIDTH:0.556435
G1 X98.568 Y120.027 E.00646
;WIDTH:0.530607
G1 X98.579 Y120.181 E.00614
;WIDTH:0.504778
G1 X98.724 Y120.673 E.01929
;WIDTH:0.499999
G1 X98.921 Y121.016 E.01473
G1 X99.281 Y121.322 E.01757
G1 X99.703 Y121.513 E.01729
G1 X100.132 Y121.594 E.01625
G1 X100.585 Y121.555 E.01693
G1 X100.98 Y121.426 E.01549
G1 X101.367 Y121.166 E.01733
G1 X101.623 Y120.866 E.0147
G1 X101.775 Y120.542 E.01335
;WIDTH:0.526196
G1 X101.861 Y120.264 E.01143
;WIDTH:0.552392
G1 X101.946 Y119.987 E.01205
;WIDTH:0.567106
G1 X101.96 Y119.747 E.01024
G1 X101.936 Y119.381 E.01569
;WIDTH:0.533553
G1 X101.912 Y119.014 E.01469
;WIDTH:0.499999
G1 X101.911 Y116.69 E.08658
G1 X102.179 Y116.673 E.01
G1 X102.86 Y116.529 E.0259
G1 X103.061 Y116.422 E.00849
G1 X103.3 Y116.631 E.01185
G1 X103.22 Y117.129 E.01877
M73 P1 R103
G1 X103.22 Y117.536 E.01519
G1 X103.315 Y117.852 E.01229
G1 X103.485 Y118.157 E.01297
G1 X103.412 Y118.186 E.00294
G1 X103.018 Y118.48 E.01827
G1 X102.622 Y119.098 E.02734
;WIDTH:0.542595
G1 X102.56 Y119.286 E.00807
;WIDTH:0.585191
G1 X102.499 Y119.474 E.00875
G1 X102.487 Y119.802 E.01448
;WIDTH:0.568191
G1 X102.538 Y119.992 E.00843
;WIDTH:0.537762
G1 X102.589 Y120.182 E.00794
;WIDTH:0.507333
G1 X102.817 Y120.676 E.02059
;WIDTH:0.499999
G1 X103.074 Y120.995 E.01527
